icons/svg/transport/parking_entrance.svg

<?xml version="1.0" encoding="UTF-8" standalone="no"?>
<!-- Created with Inkscape (http://www.inkscape.org/) -->

<svg
   xmlns:dc="http://purl.org/dc/elements/1.1/"
   xmlns:cc="http://creativecommons.org/ns#"
   xmlns:rdf="http://www.w3.org/1999/02/22-rdf-syntax-ns#"
   xmlns:svg="http://www.w3.org/2000/svg"
   xmlns="http://www.w3.org/2000/svg"
   xmlns:xlink="http://www.w3.org/1999/xlink"
   xmlns:sodipodi="http://sodipodi.sourceforge.net/DTD/sodipodi-0.dtd"
   xmlns:inkscape="http://www.inkscape.org/namespaces/inkscape"
   version="1.0"
   width="580"
   height="580"
   id="svg2"
   sodipodi:version="0.32"
   inkscape:version="0.48.4 r9939"
   sodipodi:docname="firestation.svg"
   inkscape:output_extension="org.inkscape.output.svg.inkscape">
  <metadata
     id="metadata1976">
    <rdf:RDF>
      <cc:Work
         rdf:about="">
        <dc:format>image/svg+xml</dc:format>
        <dc:type
           rdf:resource="http://purl.org/dc/dcmitype/StillImage" />
        <cc:license
           rdf:resource="http://web.resource.org/cc/PublicDomain" />
        <dc:language>en</dc:language>
        <dc:title></dc:title>
      </cc:Work>
    </rdf:RDF>
  </metadata>
  <sodipodi:namedview
     inkscape:window-height="1004"
     inkscape:window-width="1920"
     inkscape:pageshadow="2"
     inkscape:pageopacity="0.0"
     guidetolerance="10.0"
     gridtolerance="10.0"
     objecttolerance="10.0"
     borderopacity="1.0"
     bordercolor="#666666"
     pagecolor="#ffffff"
     id="base"
     inkscape:zoom="0.62906031"
     inkscape:cx="313.4638"
     inkscape:cy="310.23052"
     inkscape:window-x="1680"
     inkscape:window-y="0"
     inkscape:current-layer="svg2"
     showgrid="false"
     inkscape:window-maximized="1" />
  <defs
     id="defs4">
    <inkscape:perspective
       sodipodi:type="inkscape:persp3d"
       inkscape:vp_x="0 : 290 : 1"
       inkscape:vp_y="0 : 1000 : 0"
       inkscape:vp_z="580 : 290 : 1"
       inkscape:persp3d-origin="290 : 193.33333 : 1"
       id="perspective3653" />
    <marker
       viewBox="0 0 10 10"
       refY="5"
       refX="10"
       orient="auto"
       markerWidth="4"
       markerUnits="strokeWidth"
       markerHeight="3"
       id="ArrowStart">
      <path
         id="path2111"
         d="M 10 0 L 0 5 L 10 10 z" />
    </marker>
    <marker
       viewBox="0 0 10 10"
       refY="5"
       refX="0"
       orient="auto"
       markerWidth="4"
       markerUnits="strokeWidth"
       markerHeight="3"
       id="ArrowEnd">
      <path
         id="path2108"
         d="M 0 0 L 10 5 L 0 10 z" />
    </marker>
    <inkscape:perspective
       id="perspective2512"
       inkscape:persp3d-origin="177.51199 : 145.02 : 1"
       inkscape:vp_z="355.02399 : 217.53 : 1"
       inkscape:vp_y="0 : 1000 : 0"
       inkscape:vp_x="0 : 217.53 : 1"
       sodipodi:type="inkscape:persp3d" />
    <inkscape:perspective
       id="perspective3305"
       inkscape:persp3d-origin="372.04724 : 350.78739 : 1"
       inkscape:vp_z="744.09448 : 526.18109 : 1"
       inkscape:vp_y="0 : 1000 : 0"
       inkscape:vp_x="0 : 526.18109 : 1"
       sodipodi:type="inkscape:persp3d" />
    <inkscape:perspective
       id="perspective3354"
       inkscape:persp3d-origin="372.04724 : 350.78739 : 1"
       inkscape:vp_z="744.09448 : 526.18109 : 1"
       inkscape:vp_y="0 : 1000 : 0"
       inkscape:vp_x="0 : 526.18109 : 1"
       sodipodi:type="inkscape:persp3d" />
    <inkscape:perspective
       id="perspective3569"
       inkscape:persp3d-origin="372.04724 : 350.78739 : 1"
       inkscape:vp_z="744.09448 : 526.18109 : 1"
       inkscape:vp_y="0 : 1000 : 0"
       inkscape:vp_x="0 : 526.18109 : 1"
       sodipodi:type="inkscape:persp3d" />
    <inkscape:perspective
       id="perspective3604"
       inkscape:persp3d-origin="372.04724 : 350.78739 : 1"
       inkscape:vp_z="744.09448 : 526.18109 : 1"
       inkscape:vp_y="0 : 1000 : 0"
       inkscape:vp_x="0 : 526.18109 : 1"
       sodipodi:type="inkscape:persp3d" />
    <inkscape:perspective
       id="perspective4346"
       inkscape:persp3d-origin="372.04724 : 350.78739 : 1"
       inkscape:vp_z="744.09448 : 526.18109 : 1"
       inkscape:vp_y="0 : 1000 : 0"
       inkscape:vp_x="0 : 526.18109 : 1"
       sodipodi:type="inkscape:persp3d" />
  </defs>
  <g
     id="g1327">
    <path
       d="M 66.275,1.768 C 24.94,1.768 1.704,23.139 1.704,66.804 L 1.704,516.927 C 1.704,557.771 22.6,579.156 63.896,579.156 L 515.92,579.156 C 557.227,579.156 578.149,558.842 578.149,516.927 L 578.149,66.804 C 578.149,24.203 557.227,1.768 514.628,1.768 C 514.624,1.768 66.133,1.625 66.275,1.768 z"
       style="fill:#111111;stroke:#eeeeee;stroke-width:3.40799999"
       id="path1329" />
  </g>
  <g
     id="g2117"
     transform="matrix(1.1975036,0,0,1.1975036,80.128205,34.575832)"
     style="fill:#000000">
    <g
       id="g2119"
       style="fill:#000000">
      <g
         id="g2121"
         style="fill:#000000">
        <path
           id="path2125"
           style="fill:#000000;stroke:none"
           d="" />
      </g>
      <g
         id="g2127"
         style="fill:#000000">
        <path
           id="path2131"
           style="fill:#000000;stroke:none"
           d="" />
      </g>
    </g>
  </g>
  <image
     sodipodi:absref="/mnt/data/temp/OsmAnd-resources/icons/svg/amenity/pastedpic_10102008_233747.png"
     xlink:href="pastedpic_10102008_233747.png"
     width="239"
     height="190"
     id="image3356"
     x="-1801.1931"
     y="573.99469" />
  <g
     id="g2319"
     transform="translate(1430.8226,-158.03524)">
    <path
       inkscape:connector-curvature="0"
       id="path2323"
       style="fill:#ffffff;stroke:none"
       d="" />
  </g>
  <g
     id="g2325"
     transform="translate(1430.8226,-158.03524)">
    <path
       inkscape:connector-curvature="0"
       id="path2329"
       style="fill:#ffffff;stroke:none"
       d="" />
  </g>
  <path
     style="fill:none;stroke:#ffffff;stroke-width:30.90164757;stroke-linecap:round;stroke-linejoin:round;stroke-miterlimit:4;stroke-opacity:1;stroke-dasharray:none"
     d="m 117.92048,289.96798 115.80905,0 -28.406,-54.62692"
     id="path8395"
     inkscape:connector-curvature="0" />
  <path
     id="path8397"
     d="m 117.92048,294.05419 115.80905,0 -28.406,54.62692"
     style="fill:none;stroke:#ffffff;stroke-width:30.90164757;stroke-linecap:round;stroke-linejoin:round;stroke-miterlimit:4;stroke-opacity:1;stroke-dasharray:none"
     inkscape:connector-curvature="0" />
  <path
     style="font-size:143.53205872px;font-style:normal;font-variant:normal;font-weight:normal;font-stretch:normal;text-indent:0;text-align:start;text-decoration:none;line-height:normal;letter-spacing:normal;word-spacing:normal;text-transform:none;direction:ltr;block-progression:tb;writing-mode:lr-tb;text-anchor:start;baseline-shift:baseline;color:#000000;fill:#ffffff;fill-opacity:1;fill-rule:evenodd;stroke:none;stroke-width:18.07469177;marker:none;visibility:visible;display:inline;overflow:visible;enable-background:accumulate;font-family:Bitstream Vera Sans;-inkscape-font-specification:Sans"
     d="m 299.59398,168.49294 c -1.61137,0.001 -3.21235,0.66512 -4.35177,1.80453 -1.13941,1.13942 -1.80328,2.74039 -1.80453,4.35177 l 0,230.70163 c 10e-4,1.61137 0.66512,3.21235 1.80453,4.35177 1.13942,1.13941 2.7404,1.80328 4.35177,1.80453 l 29.78032,0 c 1.61139,-10e-4 3.21236,-0.66512 4.35177,-1.80453 1.13942,-1.13942 1.80329,-2.7404 1.80454,-4.35177 l 0,-87.6368 51.57235,0 c 32.70603,7e-5 56.63528,-6.85912 70.59513,-22.4311 13.16276,-14.68307 19.83206,-33.02257 19.83226,-53.91559 -2e-4,-12.25277 -2.4474,-23.71635 -7.4132,-34.12594 -0.01,-2e-5 -0.014,-2e-5 -0.021,0 -4.9275,-10.32835 -11.61053,-18.65882 -20.02395,-24.62523 -8.33793,-5.91211 -18.49651,-9.80742 -30.22767,-11.82266 -0.0264,-0.005 -0.0587,-0.0165 -0.0852,-0.0214 -8.56253,-1.58654 -20.17879,-2.27909 -35.27626,-2.27932 z m 35.93663,39.53667 51.40194,0 c 13.24446,2.1e-4 22.42065,0.82026 26.11636,1.81068 0.0162,0.004 0.048,0.0171 0.0639,0.0212 6.44629,1.84067 11.33242,5.37029 15.35881,11.1836 3.99038,5.76196 6.04963,12.64177 6.04979,21.28078 -1.6e-4,12.07758 -3.40591,20.33907 -10.11849,26.43589 -6.28517,5.70861 -18.39543,9.41563 -36.85261,9.41553 l -52.0197,0 0,-70.14778 z"
     id="text2419"
     inkscape:connector-curvature="0"
     sodipodi:nodetypes="csccsccsccssccccccccccccccssccc" />
</svg>

<svg width="580" height="580" viewBox="0 0 580 580" fill="none" xmlns="http://www.w3.org/2000/svg">
<g clip-path="url(#clip0)">
<path d="M66.2751 1.76766C24.9401 1.76766 1.7041 23.1387 1.7041 66.8037V516.927C1.7041 557.771 22.6001 579.156 63.8961 579.156H515.92C557.227 579.156 578.149 558.842 578.149 516.927V66.8037C578.149 24.2027 557.227 1.76766 514.628 1.76766C514.624 1.76766 66.1331 1.62466 66.2751 1.76766Z" fill="#111111" stroke="#EEEEEE" stroke-width="3.408"/>
<path d="M117.92 289.968H233.729L205.323 235.341" stroke="white" stroke-width="30.9016" stroke-linecap="round" stroke-linejoin="round"/>
<path d="M117.92 294.055H233.729L205.323 348.682" stroke="white" stroke-width="30.9016" stroke-linecap="round" stroke-linejoin="round"/>
<path fill-rule="evenodd" clip-rule="evenodd" d="M299.594 168.493C297.982 168.494 296.381 169.158 295.242 170.298C294.103 171.437 293.439 173.038 293.438 174.65V405.351C293.439 406.963 294.103 408.564 295.242 409.703C296.381 410.842 297.982 411.506 299.594 411.508H329.374C330.986 411.507 332.586 410.842 333.726 409.703C334.865 408.564 335.529 406.963 335.53 405.351V317.714H387.103C419.809 317.714 443.738 310.855 457.698 295.283C470.861 280.6 477.53 262.261 477.53 241.368C477.53 229.115 475.083 217.651 470.117 207.242C470.107 207.242 470.103 207.242 470.096 207.242C465.168 196.913 458.485 188.583 450.072 182.617C441.734 176.704 431.576 172.809 419.844 170.794C419.818 170.789 419.786 170.777 419.759 170.772C411.197 169.186 399.58 168.493 384.483 168.493L299.594 168.493ZM335.53 208.03H386.932C400.177 208.03 409.353 208.85 413.049 209.841C413.065 209.845 413.097 209.858 413.113 209.862C419.559 211.703 424.445 215.232 428.471 221.045C432.462 226.807 434.521 233.687 434.521 242.326C434.521 254.404 431.115 262.665 424.403 268.762C418.118 274.471 406.007 278.178 387.55 278.178H335.53V208.03V208.03Z" fill="white"/>
</g>
<defs>
<clipPath id="clip0">
<path d="M0 0H580V580H0V0Z" fill="white"/>
</clipPath>
</defs>
</svg>
